public/primaries/Theatre.svg

<svg id="Layer_1" data-name="Layer 1" xmlns="http://www.w3.org/2000/svg" width="64" height="64" viewBox="0 0 64 64">
  <defs>
    <style>
      .cls-1 {
        fill-rule: evenodd;
      }
    </style>
  </defs>
  <title>Icons 400</title>
  <path class="cls-1" d="M32,56.0136c-4.8966,0-22-6.9251-22-29.002C10,15.0788,13.3065,8.7327,13.4472,8.51A1.1517,1.1517,0,0,1,14.73,8.0563,69.6279,69.6279,0,0,0,32,10.01,69.6275,69.6275,0,0,0,49.27,8.0563a1.1519,1.1519,0,0,1,1.2826.4541C50.6935,8.7327,54,15.0788,54,27.0116,54,49.0885,36.8966,56.0136,32,56.0136ZM22.5028,22.008c-2.1883,0-4.5077,2.6225-4.5077,6.0068a1.0028,1.0028,0,0,0,1.799.6061,4.7508,4.7508,0,0,1,3.0717-1.6136,5.56,5.56,0,0,1,3.56.8188,1.0053,1.0053,0,0,0,1.58-.927C27.8108,25.2074,25.8079,22.008,22.5028,22.008Zm9.4956,19.0127A20.2887,20.2887,0,0,1,21.5726,38.19a1.0005,1.0005,0,0,0-1.53,1.0643,12.104,12.104,0,0,0,11.956,8.7724,12.104,12.104,0,0,0,11.956-8.7724.9991.9991,0,0,0-1.5311-1.0629A20.1465,20.1465,0,0,1,31.9984,41.0207ZM41.4972,22.008c-3.3051,0-5.3081,3.1994-5.5028,4.8911a1.0054,1.0054,0,0,0,1.58.927,5.56,5.56,0,0,1,3.56-.8188,4.7512,4.7512,0,0,1,3.0717,1.6136,1.0028,1.0028,0,0,0,1.799-.6061C46.0049,24.63,43.6855,22.008,41.4972,22.008Z"/>
</svg>

<svg id="Layer_1" data-name="Layer 1" xmlns="http://www.w3.org/2000/svg" width="64" height="64" viewBox="0 0 64 64"><defs><style>.cls-1{fill-rule:evenodd}</style></defs><title>Icons 400</title><path class="cls-1" d="M32 56.014c-4.897 0-22-6.926-22-29.002 0-11.933 3.306-18.28 3.447-18.502a1.152 1.152 0 0 1 1.283-.454A69.628 69.628 0 0 0 32 10.01a69.627 69.627 0 0 0 17.27-1.954 1.152 1.152 0 0 1 1.283.454C50.693 8.733 54 15.08 54 27.012c0 22.077-17.103 29.002-22 29.002zm-9.497-34.006c-2.188 0-4.508 2.622-4.508 6.007a1.003 1.003 0 0 0 1.8.606 4.75 4.75 0 0 1 3.07-1.614 5.56 5.56 0 0 1 3.56.82 1.005 1.005 0 0 0 1.58-.928c-.194-1.692-2.197-4.891-5.502-4.891zm9.495 19.013a20.289 20.289 0 0 1-10.425-2.831 1 1 0 0 0-1.53 1.064 12.104 12.104 0 0 0 11.956 8.773 12.104 12.104 0 0 0 11.956-8.773 1 1 0 0 0-1.531-1.063 20.146 20.146 0 0 1-10.426 2.83zm9.5-19.013c-3.306 0-5.309 3.2-5.504 4.891a1.005 1.005 0 0 0 1.58.927 5.56 5.56 0 0 1 3.56-.819 4.751 4.751 0 0 1 3.072 1.614 1.003 1.003 0 0 0 1.8-.606c-.001-3.385-2.32-6.007-4.509-6.007z"/></svg>
